packages/ui-icons/src/Service-logos/24/Apple.svg

<svg viewBox="0 0 32 32" fill="none" xmlns="http://www.w3.org/2000/svg">
<path d="M4 16C4 9.37258 9.37258 4 16 4C22.6274 4 28 9.37258 28 16C28 22.6274 22.6274 28 16 28C9.37258 28 4 22.6274 4 16Z" fill="white"/>
<path fill-rule="evenodd" clip-rule="evenodd" d="M18.6335 8.80005C18.7591 9.65336 18.4118 10.4893 17.9536 11.0808C17.4634 11.7152 16.6185 12.2059 15.7998 12.1803C15.6504 11.3633 16.033 10.5215 16.4986 9.9557C17.0093 9.3312 17.8846 8.85209 18.6335 8.80005ZM21.0927 20.8109C21.5147 20.1641 21.6724 19.8378 22 19.1075C19.6171 18.2014 19.2353 14.8137 21.5936 13.5135C20.8743 12.6115 19.8635 12.0886 18.9094 12.0886C18.2219 12.0886 17.7508 12.268 17.3226 12.4311C16.9657 12.567 16.6386 12.6916 16.2408 12.6916C15.8108 12.6916 15.4301 12.5551 15.0314 12.4121C14.5933 12.2551 14.1336 12.0902 13.5631 12.0902C12.4924 12.0902 11.3527 12.7444 10.6301 13.8629C9.61442 15.4382 9.78767 18.3996 11.4348 20.9224C12.0235 21.8252 12.8102 22.8396 13.839 22.8487C14.2659 22.853 14.55 22.7255 14.8574 22.5877C15.2093 22.4299 15.5917 22.2583 16.2539 22.2548C16.92 22.2508 17.2964 22.4244 17.6436 22.5846C17.9431 22.7227 18.2209 22.8508 18.6441 22.8462C19.6738 22.838 20.5039 21.7137 21.0927 20.8109Z" fill="#0B0B0A"/>
<path fill-rule="evenodd" clip-rule="evenodd" d="M16 4.54167C9.67174 4.54167 4.54167 9.67174 4.54167 16C4.54167 22.3283 9.67174 27.4583 16 27.4583C22.3283 27.4583 27.4583 22.3283 27.4583 16C27.4583 9.67174 22.3283 4.54167 16 4.54167ZM3.5 16C3.5 9.09644 9.09644 3.5 16 3.5C22.9036 3.5 28.5 9.09644 28.5 16C28.5 22.9036 22.9036 28.5 16 28.5C9.09644 28.5 3.5 22.9036 3.5 16Z" fill="#D8D8D8"/>
</svg>

<svg viewBox="0 0 32 32" fill="none" xmlns="http://www.w3.org/2000/svg"><path d="M4 16C4 9.373 9.373 4 16 4s12 5.373 12 12-5.373 12-12 12S4 22.627 4 16Z" fill="#fff"/><path fill-rule="evenodd" clip-rule="evenodd" d="M18.634 8.8c.125.853-.222 1.69-.68 2.28-.49.635-1.335 1.126-2.154 1.1-.15-.817.233-1.659.699-2.224.51-.625 1.386-1.104 2.135-1.156Zm2.459 12.01c.422-.646.58-.972.907-1.702-2.383-.907-2.765-4.294-.406-5.595-.72-.902-1.73-1.424-2.685-1.424-.687 0-1.158.179-1.586.342-.357.136-.684.26-1.082.26-.43 0-.81-.136-1.21-.279-.438-.157-.897-.322-1.468-.322-1.07 0-2.21.654-2.933 1.773-1.016 1.575-.842 4.537.805 7.06.588.902 1.375 1.917 2.404 1.926.427.004.711-.123 1.018-.261.352-.158.735-.33 1.397-.333.666-.004 1.042.17 1.39.33.3.138.577.266 1 .261 1.03-.008 1.86-1.132 2.449-2.035Z" fill="#0B0B0A"/><path fill-rule="evenodd" clip-rule="evenodd" d="M16 4.542C9.672 4.542 4.542 9.672 4.542 16S9.672 27.458 16 27.458 27.458 22.328 27.458 16 22.328 4.542 16 4.542ZM3.5 16C3.5 9.096 9.096 3.5 16 3.5S28.5 9.096 28.5 16 22.904 28.5 16 28.5 3.5 22.904 3.5 16Z" fill="#D8D8D8"/></svg>
